X:166
T:score246
L:1/8
Q:1/4=96
M:4/4
I:linebreak $
K:G
!p!"_dolce." (FGA ||"_espress." B3 A BedB | AG E2- E)(GBc |$ d3 e dBGB | A4- A)(FGA | B3 A BedB |$ %6
 AGE^D E)(FGA | B3 c BAGA | G8) |] %9
